icons/evolvere-blue-folders-flat-vivid-dark-fallback/apps/64/via-eletronica.svg

<?xml version="1.0" encoding="UTF-8" standalone="no"?>
<!-- Created with Inkscape (http://www.inkscape.org/) -->

<svg
   xmlns:dc="http://purl.org/dc/elements/1.1/"
   xmlns:cc="http://creativecommons.org/ns#"
   xmlns:rdf="http://www.w3.org/1999/02/22-rdf-syntax-ns#"
   xmlns:svg="http://www.w3.org/2000/svg"
   xmlns="http://www.w3.org/2000/svg"
   xmlns:sodipodi="http://sodipodi.sourceforge.net/DTD/sodipodi-0.dtd"
   xmlns:inkscape="http://www.inkscape.org/namespaces/inkscape"
   width="64"
   height="64"
   id="svg13094"
   version="1.1"
   inkscape:version="0.91+devel r"
   sodipodi:docname="via-eletronica.svg">
  <sodipodi:namedview
     id="base"
     pagecolor="#ffffff"
     bordercolor="#666666"
     borderopacity="1.0"
     inkscape:pageopacity="0"
     inkscape:pageshadow="2"
     inkscape:zoom="11.313709"
     inkscape:cx="29.015478"
     inkscape:cy="34.381016"
     inkscape:document-units="px"
     inkscape:current-layer="svg13094"
     showgrid="false"
     inkscape:snap-bbox="true"
     inkscape:bbox-paths="true"
     inkscape:bbox-nodes="true"
     inkscape:snap-bbox-edge-midpoints="true"
     inkscape:snap-bbox-midpoints="true"
     inkscape:object-paths="true"
     inkscape:snap-intersection-paths="true"
     inkscape:object-nodes="true"
     inkscape:snap-smooth-nodes="true"
     inkscape:snap-midpoints="true"
     inkscape:snap-object-midpoints="true"
     inkscape:snap-center="true"
     showguides="true"
     inkscape:guide-bbox="true"
     inkscape:window-width="1920"
     inkscape:window-height="1025"
     inkscape:window-x="-2"
     inkscape:window-y="32"
     inkscape:window-maximized="1"
     inkscape:snap-global="true"
     fit-margin-top="0"
     fit-margin-left="0"
     fit-margin-right="0"
     fit-margin-bottom="0"
     showborder="true"
     inkscape:showpageshadow="false"
     inkscape:snap-page="true">
    <inkscape:grid
       type="xygrid"
       id="grid3075"
       empspacing="5"
       visible="true"
       enabled="true"
       snapvisiblegridlinesonly="true"
       originx="1.6362304e-08px"
       originy="18px" />
  </sodipodi:namedview>
  <defs
     id="defs13096" />
  <metadata
     id="metadata13099">
    <rdf:RDF>
      <cc:Work
         rdf:about="">
        <dc:format>image/svg+xml</dc:format>
        <dc:type
           rdf:resource="http://purl.org/dc/dcmitype/StillImage" />
        <dc:title></dc:title>
      </cc:Work>
    </rdf:RDF>
  </metadata>
  <path
     id="path3983"
     d="m 0,4 0,30 0,28 2,2 30,0 30,0 2,-2 L 64,34 64,4 32,4 0,4 z"
     style="color:#000000;fill:#e3583a;fill-opacity:1;fill-rule:nonzero;stroke:none;stroke-width:2.28571415;marker:none;visibility:visible;display:inline;overflow:visible;enable-background:accumulate"
     inkscape:connector-curvature="0" />
  <path
     inkscape:connector-curvature="0"
     style="color:#000000;fill:#ff8d55;fill-opacity:1;fill-rule:nonzero;stroke:none;marker:none;visibility:visible;display:inline;overflow:visible;enable-background:accumulate"
     d="M 2,0 0,1 0,4 32,4 64,4 64,1 62,0 32,0 2,0 z"
     id="path6502" />
  <path
     d="M 64,6 62,4 64,3 z"
     id="path3028"
     style="fill:#ee7045;fill-opacity:1"
     inkscape:connector-curvature="0" />
  <path
     inkscape:connector-curvature="0"
     style="fill:#ffaa80;fill-opacity:1;fill-rule:nonzero"
     d="M 0,3 0,6 2,4 Z"
     id="path4298"
     sodipodi:nodetypes="cccc" />
  <path
     inkscape:connector-curvature="0"
     style="fill:#1f0700;fill-opacity:0.06978802;fill-rule:nonzero"
     d="M 2,0 0,1 Z"
     id="path4444"
     sodipodi:nodetypes="ccc" />
  <g
     id="g3043"
     inkscape:export-filename="folder.png"
     inkscape:export-xdpi="90"
     inkscape:export-ydpi="90"
     transform="translate(-0.62500009,0.082283)" />
  <g
     id="scalable"
     transform="matrix(1.0385892,0,0,1.0385892,1214.7222,1878.8121)"
     inkscape:label="#g3701"
     style="fill:#ffffff" />
  <path
     style="fill:#efefef;fill-opacity:1;fill-rule:nonzero;stroke:none"
     d="m 41.529412,18.797344 c -1.215183,0 -2.22353,1.008347 -2.22353,2.22353 0,1.215408 1.008347,2.188235 2.22353,2.188235 1.215183,0 2.188235,-0.973048 2.188235,-2.188235 0,-1.215183 -0.973052,-2.22353 -2.188235,-2.22353 z m -2.470589,5.929412 c -0.32017,-0.0049 -0.615266,0.01608 -0.952941,0.03529 C 36.082083,24.88854 34.023572,25.420944 32,27.444403 L 18.905883,40.503227 c -0.804102,0.804322 -1.497073,1.250509 -2.188236,1.694118 -1.628529,-1.40627 -3.254452,-4.409358 -6.352942,-9.776471 l -5.3647054,0 c 4.6048186,7.975779 5.7713274,10.764705 8.5411764,10.764705 l 5.611765,0 c 2.510773,0 3.405839,-0.935133 5.152942,-2.682352 L 37.364706,27.444403 c 2.0238,-2.023575 3.804532,-2.555863 5.858824,-2.682353 l -3.176471,0 c -0.337679,0 -0.668064,-0.03049 -0.988236,-0.03529 z m 5.788236,2.329412 c -2.510776,0 -3.405833,0.935133 -5.152942,2.682352 L 28.929412,40.503227 c -2.023799,2.023573 -3.804758,2.555839 -5.858824,2.682352 l 3.17647,0 c 0.675351,0 1.301121,0.03843 1.976472,0 2.023799,-0.126489 4.082308,-0.658894 6.105882,-2.682352 L 45.094117,29.73852 c 0.804099,-0.804322 1.497072,-1.250509 2.188236,-1.694117 1.628526,1.406269 3.254226,4.40938 6.352942,9.776471 l 5.364705,0 C 54.395181,29.845095 53.228673,27.056168 50.458824,27.056168 l -5.611765,0 z"
     id="path4224"
     inkscape:connector-curvature="0" />
</svg>

<svg xmlns="http://www.w3.org/2000/svg" viewBox="0 0 64 64"><g color="#000"><path d="m0 4v30 28l2 2h30 30l2-2v-28-30h-32-32" fill="#e3583a"/><path d="m2 0l-2 1v3h32 32v-3l-2-1h-30-30" fill="#ff8d55"/></g><path d="m64 6l-2-2 2-1z" fill="#ee7045"/><path d="m0 3v3l2-2" fill="#ffaa80"/><path d="m2 0l-2 1" fill="#1f0700" fill-opacity=".07"/><path d="m41.529 18.797c-1.215 0-2.224 1.01-2.224 2.224 0 1.215 1.01 2.188 2.224 2.188 1.215 0 2.188-.973 2.188-2.188 0-1.215-.973-2.224-2.188-2.224m-2.471 5.929c-.32-.005-.615.016-.953.035-2.024.126-4.082.659-6.106 2.682l-13.09 13.06c-.804.804-1.497 1.251-2.188 1.694-1.629-1.406-3.254-4.409-6.353-9.776h-5.365c4.605 7.976 5.771 10.765 8.541 10.765h5.612c2.511 0 3.406-.935 5.153-2.682l13.06-13.06c2.024-2.024 3.805-2.556 5.859-2.682h-3.176c-.338 0-.668-.03-.988-.035m5.788 2.329c-2.511 0-3.406.935-5.153 2.682l-10.765 10.765c-2.024 2.024-3.805 2.556-5.859 2.682h3.176c.675 0 1.301.038 1.976 0 2.024-.126 4.082-.659 6.106-2.682l10.765-10.765c.804-.804 1.497-1.251 2.188-1.694 1.629 1.406 3.254 4.409 6.353 9.776h5.365c-4.605-7.976-5.771-10.765-8.541-10.765h-5.612" fill="#efefef"/></svg>
